client/public/static/images/Top.svg

<svg width="1920" height="207" viewBox="0 0 1920 207" fill="none" xmlns="http://www.w3.org/2000/svg">
<path d="M0 101.811L64 73.3892C128 44.4333 256 -11.6105 384 2.1336C512 16.4114 640 101.811 768 116.089C896 129.833 1024 73.7895 1152 80.4614C1280 87.1333 1408 159.19 1536 187.211C1664 215.233 1792 201.89 1856 194.284L1920 187.211V315.311H1856C1792 315.311 1664 315.311 1536 315.311C1408 315.311 1280 315.311 1152 315.311C1024 315.311 896 315.311 768 315.311C640 315.311 512 315.311 384 315.311C256 315.311 128 315.311 64 315.311H0V101.811Z" fill="#96011C"/>
</svg>

<?xml version="1.0" encoding="utf-8"?>
<!-- Generator: Adobe Illustrator 26.1.0, SVG Export Plug-In . SVG Version: 6.00 Build 0)  -->
<svg version="1.1" id="Layer_1" xmlns="http://www.w3.org/2000/svg" xmlns:xlink="http://www.w3.org/1999/xlink" x="0px" y="0px"
	 viewBox="0 0 1920 207" style="enable-background:new 0 0 1920 207;" xml:space="preserve">
<style type="text/css">
	.st0{fill:url(#SVGID_1_);}
</style>
<linearGradient id="SVGID_1_" gradientUnits="userSpaceOnUse" x1="0" y1="157.6555" x2="1920" y2="157.6555">
	<stop  offset="0" style="stop-color:#FF1730"/>
	<stop  offset="1" style="stop-color:#85011C"/>
</linearGradient>
<path class="st0" d="M0,101.8l64-28.4c64-29,192-85,320-71.3c128,14.3,256,99.7,384,114c128,13.7,256-42.3,384-35.6
	c128,6.7,256,78.7,384,106.7c128,28,256,14.7,320,7.1l64-7.1v128.1h-64c-64,0-192,0-320,0s-256,0-384,0s-256,0-384,0s-256,0-384,0
	s-256,0-320,0H0V101.8z"/>
</svg>
